X:8404
T:Kas ha barh
C:Storvan
M:4/4
L:1/8
K:D
A2AG F2B2|c2A2 B2BB|ABAG F2B2|c2A2 B4:|\
|:E2FG E2E2|E2FG B3B|ABAG F3E|F2G2 E4:|
